assets/icons/utility/locker_service_api_viewer.svg

<?xml version="1.0"?><svg xmlns="http://www.w3.org/2000/svg" width="52" height="52" viewBox="0 0 52 52"><g fill="#fff"><path d="m18 38.5c0 0.8 0.7 1.5 1.5 1.5h2.6c-0.1-0.7-0.1-1.3-0.1-2 0-1.4 0.2-2.7 0.5-4h-3c-0.8 0-1.5 0.7-1.5 1.5v3z m10.5-24.5h-9c-0.8 0-1.5 0.7-1.5 1.5v3c0 0.8 0.7 1.5 1.5 1.5h9c0.8 0 1.5-0.7 1.5-1.5v-3c0-0.8-0.7-1.5-1.5-1.5z m-25-4h41c0.8 0 1.5-0.7 1.5-1.5v-5c0-0.8-0.7-1.5-1.5-1.5h-41c-0.8 0-1.5 0.7-1.5 1.5v5c0 0.8 0.7 1.5 1.5 1.5z m41 10c0.8 0 1.5-0.7 1.5-1.5v-3c0-0.8-0.7-1.5-1.5-1.5h-9c-0.8 0-1.5 0.7-1.5 1.5v3c0 0.8 0.7 1.5 1.5 1.5h9z m-26.5 8.5c0 0.8 0.7 1.5 1.5 1.5h4.6c1.3-2.3 3.2-4.2 5.4-5.6-0.3-0.3-0.6-0.4-1-0.4h-9c-0.8 0-1.5 0.7-1.5 1.5v3z m-5.5-14.5h-9c-0.8 0-1.5 0.7-1.5 1.5v3c0 0.8 0.7 1.5 1.5 1.5h9c0.8 0 1.5-0.7 1.5-1.5v-3c0-0.8-0.7-1.5-1.5-1.5z m10.6 30h-3.6c-0.8 0-1.5 0.7-1.5 1.5v3c0 0.8 0.7 1.5 1.5 1.5h7.9c-1.9-1.6-3.3-3.7-4.3-6z m-10.6-10h-9c-0.8 0-1.5 0.7-1.5 1.5v3c0 0.8 0.7 1.5 1.5 1.5h9c0.8 0 1.5-0.7 1.5-1.5v-3c0-0.8-0.7-1.5-1.5-1.5z m0 10h-9c-0.8 0-1.5 0.7-1.5 1.5v3c0 0.8 0.7 1.5 1.5 1.5h9c0.8 0 1.5-0.7 1.5-1.5v-3c0-0.8-0.7-1.5-1.5-1.5z m0-20h-9c-0.8 0-1.5 0.7-1.5 1.5v3c0 0.8 0.7 1.5 1.5 1.5h9c0.8 0 1.5-0.7 1.5-1.5v-3c0-0.8-0.7-1.5-1.5-1.5z m25.4 2.1c-6.6 0-12 5.4-12 12s5.4 12 12 12 12-5.4 12-12-5.4-12-12-12z m7.9 8.5l-9.6 9.7c-0.2 0.2-0.5 0.2-0.7 0l-5.6-5.6c-0.2-0.2-0.2-0.5 0-0.7l2.1-2.1c0.2-0.2 0.5-0.2 0.7 0l2.9 2.9c0.1 0.1 0.4 0.1 0.5 0l6.9-7c0.2-0.2 0.5-0.2 0.7 0l2.1 2.1c0.3 0.2 0.3 0.5 0 0.7z"></path></g></svg>

<svg xmlns="http://www.w3.org/2000/svg" x="0px" y="0px"
	 width="52px" height="52px" viewBox="0 0 52 52" enable-background="new 0 0 52 52" xml:space="preserve">
<g>
	<g>
		<path fill="#FFFFFF" d="M18,38.5c0,0.8,0.7,1.5,1.5,1.5h2.6C22,39.3,22,38.7,22,38c0-1.4,0.2-2.7,0.5-4h-3c-0.8,0-1.5,0.7-1.5,1.5
			V38.5z"/>
		<path fill="#FFFFFF" d="M28.5,14h-9c-0.8,0-1.5,0.7-1.5,1.5v3c0,0.8,0.7,1.5,1.5,1.5h9c0.8,0,1.5-0.7,1.5-1.5v-3
			C30,14.7,29.3,14,28.5,14z"/>
		<path fill="#FFFFFF" d="M3.5,10h41c0.8,0,1.5-0.7,1.5-1.5v-5C46,2.7,45.3,2,44.5,2h-41C2.7,2,2,2.7,2,3.5v5C2,9.3,2.7,10,3.5,10z"
			/>
		<path fill="#FFFFFF" d="M44.5,20c0.8,0,1.5-0.7,1.5-1.5v-3c0-0.8-0.7-1.5-1.5-1.5h-9c-0.8,0-1.5,0.7-1.5,1.5v3
			c0,0.8,0.7,1.5,1.5,1.5H44.5z"/>
		<path fill="#FFFFFF" d="M18,28.5c0,0.8,0.7,1.5,1.5,1.5h4.6c1.3-2.3,3.2-4.2,5.4-5.6c-0.3-0.3-0.6-0.4-1-0.4h-9
			c-0.8,0-1.5,0.7-1.5,1.5V28.5z"/>
		<path fill="#FFFFFF" d="M12.5,14h-9C2.7,14,2,14.7,2,15.5v3C2,19.3,2.7,20,3.5,20h9c0.8,0,1.5-0.7,1.5-1.5v-3
			C14,14.7,13.3,14,12.5,14z"/>
		<path fill="#FFFFFF" d="M23.1,44h-3.6c-0.8,0-1.5,0.7-1.5,1.5v3c0,0.8,0.7,1.5,1.5,1.5h7.9C25.5,48.4,24.1,46.3,23.1,44z"/>
		<path fill="#FFFFFF" d="M12.5,34h-9C2.7,34,2,34.7,2,35.5v3C2,39.3,2.7,40,3.5,40h9c0.8,0,1.5-0.7,1.5-1.5v-3
			C14,34.7,13.3,34,12.5,34z"/>
		<path fill="#FFFFFF" d="M12.5,44h-9C2.7,44,2,44.7,2,45.5v3C2,49.3,2.7,50,3.5,50h9c0.8,0,1.5-0.7,1.5-1.5v-3
			C14,44.7,13.3,44,12.5,44z"/>
		<path fill="#FFFFFF" d="M12.5,24h-9C2.7,24,2,24.7,2,25.5v3C2,29.3,2.7,30,3.5,30h9c0.8,0,1.5-0.7,1.5-1.5v-3
			C14,24.7,13.3,24,12.5,24z"/>
	</g>
	<path fill="#FFFFFF" d="M37.9,26.1c-6.6,0-12,5.4-12,12s5.4,12,12,12c6.6,0,12-5.4,12-12S44.5,26.1,37.9,26.1z M45.8,34.6l-9.6,9.7
		c-0.2,0.2-0.5,0.2-0.7,0l-5.6-5.6c-0.2-0.2-0.2-0.5,0-0.7l2.1-2.1c0.2-0.2,0.5-0.2,0.7,0l2.9,2.9c0.1,0.1,0.4,0.1,0.5,0l6.9-7
		c0.2-0.2,0.5-0.2,0.7,0l2.1,2.1C46.1,34.1,46.1,34.4,45.8,34.6z"/>
</g>
</svg>
